X:1
T:Polska
T:Ur Notbok för E.J. Jonasson
N:Står i notboken som polska men i 2/4. Passar bra att använda som engelska
M:2/4
L:1/16
O:Blekinge
Q:1/8=160
Z:Peter Svensson
R:Polska
R:Engelska
K:D
|: FGAA BA^GA | d2FG B2A2 | ABcd efge | dcBc d2z2 :|
|: f3d  A2f2  | A2f2 g2f2 | e3d  c3B  | Acec d2z2 :|

